; generated by Slic3r 1.2.9 on 2016-06-28 at 17:02:08

; external perimeters extrusion width = 0.40mm
; perimeters extrusion width = 0.67mm
; infill extrusion width = 0.67mm
; solid infill extrusion width = 0.67mm
; top infill extrusion width = 0.67mm

M104 S210 ; set temperature

M109 S210 ; wait for temperature to be reached
G21 ; set units to millimeters
G90 ; use absolute coordinates
M82 ; use absolute distances for extrusion
G92 E0
M106 S201.45
G1 Z0.350 F1800.000
G1 E-2.00000 F2400.00000
G92 E0
G1 X-36.119 Y3.400 F1800.000
G1 E2.00000 F2400.00000
G1 X-52.919 Y3.400 E3.56318 F900.000
G1 X-52.919 Y-3.400 E4.19592
G1 X-36.119 Y-3.400 E5.75911
G1 X-36.119 Y3.340 E6.38627
G1 X-35.494 Y4.025 F1800.000
G1 X-53.544 Y4.025 E8.06573 F900.000
G1 X-53.544 Y-4.025 E8.81476
G1 X-35.494 Y-4.025 E10.49423
G1 X-35.494 Y3.965 E11.23767
G1 X-34.869 Y4.650 F1800.000
G1 X-54.169 Y4.650 E13.03342 F900.000
G1 X-54.169 Y-4.650 E13.89873
G1 X-34.869 Y-4.650 E15.69449
G1 X-34.869 Y4.590 E16.55421
G1 X-35.216 Y4.450 F1800.000
G1 X-36.498 Y-2.717 F1800.000
G1 X-36.803 Y-3.022 E16.59487 F900.000
G1 X-37.698 Y-3.022 E16.67918
G1 X-36.498 Y-1.822 E16.83906
G1 X-36.498 Y-0.927 E16.92337
G1 X-38.592 Y-3.022 E17.20248
G1 X-39.487 Y-3.022 E17.28679
G1 X-36.498 Y-0.032 E17.68513
G1 X-36.498 Y0.863 E17.76944
G1 X-40.382 Y-3.022 E18.28702
G1 X-41.277 Y-3.022 E18.37132
G1 X-36.498 Y1.758 E19.00813
G1 X-36.498 Y2.653 E19.09243
G1 X-42.172 Y-3.022 E19.84847
G1 X-43.067 Y-3.022 E19.93278
G1 X-37.023 Y3.022 E20.73798
G1 X-37.918 Y3.022 E20.82229
G1 X-43.961 Y-3.022 E21.62750
G1 X-44.856 Y-3.022 E21.71181
G1 X-38.813 Y3.022 E22.51702
G1 X-39.708 Y3.022 E22.60133
G1 X-45.751 Y-3.022 E23.40654
G1 X-46.646 Y-3.022 E23.49085
G1 X-40.603 Y3.022 E24.29605
G1 X-41.498 Y3.022 E24.38036
G1 X-47.541 Y-3.022 E25.18557
G1 X-48.436 Y-3.022 E25.26988
G1 X-42.392 Y3.022 E26.07509
G1 X-43.287 Y3.022 E26.15940
G1 X-49.331 Y-3.022 E26.96461
G1 X-50.225 Y-3.022 E27.04891
G1 X-44.182 Y3.022 E27.85412
G1 X-45.077 Y3.022 E27.93843
G1 X-51.120 Y-3.022 E28.74364
G1 X-52.015 Y-3.022 E28.82795
G1 X-45.972 Y3.022 E29.63316
G1 X-46.867 Y3.022 E29.71747
G1 X-52.541 Y-2.653 E30.47350
G1 X-52.541 Y-1.758 E30.55781
G1 X-47.761 Y3.022 E31.19461
G1 X-48.656 Y3.022 E31.27891
G1 X-52.541 Y-0.863 E31.79649
G1 X-52.541 Y0.032 E31.88079
G1 X-49.551 Y3.022 E32.27914
G1 X-50.446 Y3.022 E32.36344
G1 X-52.541 Y0.927 E32.64256
G1 X-52.541 Y1.822 E32.72686
G1 X-51.341 Y3.022 E32.88675
G1 X-52.236 Y3.022 E32.97105
G1 X-52.541 Y2.717 E33.01171
M106 S163.2
G1 Z0.550 F1800.000
G1 X-35.085 Y3.679 F1800.000
G1 X-52.443 Y3.679 E33.93966 F600.000
G1 X-52.443 Y-3.679 E34.33302
G1 X-35.085 Y-3.679 E35.26097
G1 X-35.085 Y3.619 E35.65112
G1 X-34.456 Y4.307 F1800.000
G1 X-53.071 Y4.307 E36.64625 F600.000
G1 X-53.071 Y-4.307 E37.10679
G1 X-34.456 Y-4.307 E38.10192
G1 X-34.456 Y4.247 E38.55925
G1 X-33.964 Y4.800 F1800.000
G1 X-53.564 Y4.800 E39.15473 F300.000
G1 X-53.564 Y-4.800 E39.44640
G1 X-33.964 Y-4.800 E40.04188
G1 X-33.964 Y4.740 E40.33172
G1 X-34.310 Y4.600 F1800.000
G1 E38.33172 F2400.00000
G92 E0
G1 X-35.772 Y3.298 F1800.000
G1 E2.00000 F2400.00000
G1 X-35.465 Y2.992 E2.02356 F900.000
G1 X-35.465 Y2.088 E2.07264
G1 X-36.675 Y3.298 E2.16560
G1 X-37.578 Y3.298 E2.21468
G1 X-35.465 Y1.185 E2.37706
G1 X-35.465 Y0.282 E2.42614
G1 X-38.482 Y3.298 E2.65792
G1 X-39.385 Y3.298 E2.70700
G1 X-35.465 Y-0.621 E3.00819
G1 X-35.465 Y-1.524 E3.05726
G1 X-40.288 Y3.298 E3.42786
G1 X-41.191 Y3.298 E3.47694
G1 X-35.465 Y-2.427 E3.91694
G1 X-35.502 Y-3.294 E3.96409
G1 X-42.094 Y3.298 E4.47072
G1 X-42.998 Y3.298 E4.51980
G1 X-36.401 Y-3.298 E5.02672
G1 X-37.304 Y-3.298 E5.07579
G1 X-43.901 Y3.298 E5.58271
G1 X-44.804 Y3.298 E5.63179
G1 X-38.207 Y-3.298 E6.13871
G1 X-39.111 Y-3.298 E6.18778
G1 X-45.707 Y3.298 E6.69470
G1 X-46.610 Y3.298 E6.74378
G1 X-40.014 Y-3.298 E7.25069
G1 X-40.917 Y-3.298 E7.29977
G1 X-47.513 Y3.298 E7.80669
G1 X-48.417 Y3.298 E7.85577
G1 X-41.820 Y-3.298 E8.36268
G1 X-42.723 Y-3.298 E8.41176
G1 X-49.320 Y3.298 E8.91868
G1 X-50.223 Y3.298 E8.96776
G1 X-43.627 Y-3.298 E9.47467
G1 X-44.530 Y-3.298 E9.52375
G1 X-51.126 Y3.298 E10.03067
G1 X-52.026 Y3.294 E10.07954
G1 X-45.433 Y-3.298 E10.58617
G1 X-46.336 Y-3.298 E10.63525
G1 X-52.062 Y2.427 E11.07525
G1 X-52.062 Y1.524 E11.12433
G1 X-47.239 Y-3.298 E11.49492
G1 X-48.143 Y-3.298 E11.54400
G1 X-52.062 Y0.621 E11.84519
G1 X-52.062 Y-0.282 E11.89427
G1 X-49.046 Y-3.298 E12.12605
G1 X-49.949 Y-3.298 E12.17513
G1 X-52.062 Y-1.185 E12.33750
G1 X-52.062 Y-2.088 E12.38658
G1 X-50.852 Y-3.298 E12.47954
G1 X-51.755 Y-3.298 E12.52862
G1 X-52.062 Y-2.992 E12.55218
M106 S165.75
G1 Z0.750 F1800.000
G1 X-34.535 Y3.679 F1800.000
G1 X-51.893 Y3.679 E13.48013 F600.000
G1 X-51.893 Y-3.679 E13.87349
G1 X-34.535 Y-3.679 E14.80144
G1 X-34.535 Y3.619 E15.19159
G1 X-33.907 Y4.307 F1800.000
G1 X-52.521 Y4.307 E16.18672 F600.000
G1 X-52.521 Y-4.307 E16.64726
G1 X-33.907 Y-4.307 E17.64239
G1 X-33.907 Y4.247 E18.09972
G1 X-33.414 Y4.800 F1800.000
G1 X-53.014 Y4.800 E18.69520 F300.000
G1 X-53.014 Y-4.800 E18.98687
G1 X-33.414 Y-4.800 E19.58235
G1 X-33.414 Y4.740 E19.87219
G1 X-33.761 Y4.600 F1800.000
G1 E17.87219 F2400.00000
G92 E0
G1 X-35.465 Y-2.992 F1800.000
G1 E2.00000 F2400.00000
G1 X-35.772 Y-3.298 E2.02394 F900.000
G1 X-36.690 Y-3.298 E2.07464
G1 X-35.465 Y-2.074 E2.17027
G1 X-35.465 Y-1.156 E2.22096
G1 X-37.608 Y-3.298 E2.38829
G1 X-38.526 Y-3.298 E2.43898
G1 X-35.465 Y-0.238 E2.67800
G1 X-35.465 Y0.680 E2.72869
G1 X-39.444 Y-3.298 E3.03940
G1 X-40.362 Y-3.298 E3.09009
G1 X-35.465 Y1.598 E3.47249
G1 X-35.465 Y2.516 E3.52318
G1 X-41.280 Y-3.298 E3.97727
G1 X-42.197 Y-3.298 E4.02796
G1 X-35.601 Y3.298 E4.54315
G1 X-36.519 Y3.298 E4.59384
G1 X-43.115 Y-3.298 E5.10903
G1 X-44.033 Y-3.298 E5.15972
G1 X-37.437 Y3.298 E5.67491
G1 X-38.355 Y3.298 E5.72560
G1 X-44.951 Y-3.298 E6.24079
G1 X-45.869 Y-3.298 E6.29149
G1 X-39.273 Y3.298 E6.80667
G1 X-40.191 Y3.298 E6.85737
G1 X-46.787 Y-3.298 E7.37255
G1 X-47.705 Y-3.298 E7.42325
G1 X-41.109 Y3.298 E7.93843
G1 X-42.027 Y3.298 E7.98913
G1 X-48.623 Y-3.298 E8.50431
G1 X-49.541 Y-3.298 E8.55501
G1 X-42.944 Y3.298 E9.07019
G1 X-43.862 Y3.298 E9.12089
G1 X-50.459 Y-3.298 E9.63607
G1 X-51.377 Y-3.298 E9.68677
G1 X-44.780 Y3.298 E10.20195
G1 X-45.698 Y3.298 E10.25265
G1 X-51.512 Y-2.516 E10.70673
G1 X-51.512 Y-1.598 E10.75743
G1 X-46.616 Y3.298 E11.13982
G1 X-47.534 Y3.298 E11.19052
G1 X-51.512 Y-0.680 E11.50122
G1 X-51.512 Y0.238 E11.55191
G1 X-48.452 Y3.298 E11.79093
G1 X-49.370 Y3.298 E11.84162
G1 X-51.512 Y1.156 E12.00895
G1 X-51.512 Y2.074 E12.05964
G1 X-50.288 Y3.298 E12.15527
G1 X-51.206 Y3.298 E12.20596
G1 X-51.512 Y2.992 E12.22991
M106 S163.2
G1 Z0.950 F1800.000
G1 X-33.986 Y3.679 F1800.000
G1 X-51.344 Y3.679 E13.15786 F600.000
G1 X-51.344 Y-3.679 E13.55122
G1 X-33.986 Y-3.679 E14.47917
G1 X-33.986 Y3.619 E14.86932
G1 X-33.357 Y4.307 F1800.000
G1 X-51.972 Y4.307 E15.86445 F600.000
G1 X-51.972 Y-4.307 E16.32499
G1 X-33.357 Y-4.307 E17.32012
G1 X-33.357 Y4.247 E17.77745
G1 X-32.865 Y4.800 F1800.000
G1 X-52.465 Y4.800 E18.37293 F300.000
G1 X-52.465 Y-4.800 E18.66460
G1 X-32.865 Y-4.800 E19.26008
G1 X-32.865 Y4.740 E19.54992
G1 X-33.211 Y4.600 F1800.000
G1 E17.54992 F2400.00000
G92 E0
G1 X-34.673 Y3.298 F1800.000
G1 E2.00000 F2400.00000
G1 X-34.366 Y2.992 E2.02318 F900.000
G1 X-34.366 Y2.088 E2.07146
G1 X-35.576 Y3.298 E2.16292
G1 X-36.479 Y3.298 E2.21121
G1 X-34.366 Y1.185 E2.37096
G1 X-34.366 Y0.282 E2.41924
G1 X-37.383 Y3.298 E2.64727
G1 X-38.286 Y3.298 E2.69556
G1 X-34.366 Y-0.621 E2.99187
G1 X-34.366 Y-1.524 E3.04016
G1 X-39.189 Y3.298 E3.40476
G1 X-40.092 Y3.298 E3.45304
G1 X-34.366 Y-2.427 E3.88592
G1 X-34.403 Y-3.294 E3.93231
G1 X-40.995 Y3.298 E4.43074
G1 X-41.899 Y3.298 E4.47902
G1 X-35.302 Y-3.298 E4.97774
G1 X-36.205 Y-3.298 E5.02602
G1 X-42.802 Y3.298 E5.52474
G1 X-43.705 Y3.298 E5.57302
G1 X-37.108 Y-3.298 E6.07173
G1 X-38.012 Y-3.298 E6.12002
G1 X-44.608 Y3.298 E6.61873
G1 X-45.511 Y3.298 E6.66701
G1 X-38.915 Y-3.298 E7.16573
G1 X-39.818 Y-3.298 E7.21401
G1 X-46.414 Y3.298 E7.71273
G1 X-47.318 Y3.298 E7.76101
G1 X-40.721 Y-3.298 E8.25972
G1 X-41.624 Y-3.298 E8.30801
G1 X-48.221 Y3.298 E8.80672
G1 X-49.124 Y3.298 E8.85501
G1 X-42.528 Y-3.298 E9.35372
G1 X-43.431 Y-3.298 E9.40200
G1 X-50.027 Y3.298 E9.90072
G1 X-50.927 Y3.294 E9.94880
G1 X-44.334 Y-3.298 E10.44723
G1 X-45.237 Y-3.298 E10.49551
G1 X-50.963 Y2.427 E10.92839
G1 X-50.963 Y1.524 E10.97668
G1 X-46.140 Y-3.298 E11.34128
G1 X-47.044 Y-3.298 E11.38956
G1 X-50.963 Y0.621 E11.68587
G1 X-50.963 Y-0.282 E11.73416
G1 X-47.947 Y-3.298 E11.96219
G1 X-48.850 Y-3.298 E12.01047
G1 X-50.963 Y-1.185 E12.17022
G1 X-50.963 Y-2.088 E12.21850
G1 X-49.753 Y-3.298 E12.30996
G1 X-50.656 Y-3.298 E12.35825
G1 X-50.963 Y-2.992 E12.38142
G1 Z1.150 F1800.000
G1 X-33.436 Y3.679 F1800.000
G1 X-50.794 Y3.679 E13.30938 F600.000
G1 X-50.794 Y-3.679 E13.70273
G1 X-33.436 Y-3.679 E14.63069
G1 X-33.436 Y3.619 E15.02084
G1 X-32.808 Y4.307 F1800.000
G1 X-51.422 Y4.307 E16.01597 F600.000
G1 X-51.422 Y-4.307 E16.47651
G1 X-32.808 Y-4.307 E17.47164
G1 X-32.808 Y4.247 E17.92897
G1 X-32.315 Y4.800 F1800.000
G1 X-51.915 Y4.800 E18.52445 F300.000
G1 X-51.915 Y-4.800 E18.81611
G1 X-32.315 Y-4.800 E19.41160
G1 X-32.315 Y4.740 E19.70144
G1 X-32.662 Y4.600 F1800.000
G1 E17.70144 F2400.00000
G92 E0
G1 X-33.817 Y-2.992 F1800.000
G1 E2.00000 F2400.00000
G1 X-34.124 Y-3.298 E2.02318 F900.000
G1 X-35.027 Y-3.298 E2.07146
G1 X-33.817 Y-2.088 E2.16292
G1 X-33.817 Y-1.185 E2.21121
G1 X-35.930 Y-3.298 E2.37096
G1 X-36.833 Y-3.298 E2.41924
G1 X-33.817 Y-0.282 E2.64727
G1 X-33.817 Y0.621 E2.69556
G1 X-37.736 Y-3.298 E2.99187
G1 X-38.639 Y-3.298 E3.04016
G1 X-33.817 Y1.524 E3.40476
G1 X-33.817 Y2.427 E3.45304
G1 X-39.543 Y-3.298 E3.88592
G1 X-40.446 Y-3.298 E3.93421
G1 X-33.853 Y3.294 E4.43264
G1 X-34.753 Y3.298 E4.48072
G1 X-41.349 Y-3.298 E4.97943
G1 X-42.252 Y-3.298 E5.02772
G1 X-35.656 Y3.298 E5.52643
G1 X-36.559 Y3.298 E5.57472
G1 X-43.155 Y-3.298 E6.07343
G1 X-44.059 Y-3.298 E6.12171
G1 X-37.462 Y3.298 E6.62043
G1 X-38.365 Y3.298 E6.66871
G1 X-44.962 Y-3.298 E7.16742
G1 X-45.865 Y-3.298 E7.21571
G1 X-39.269 Y3.298 E7.71442
G1 X-40.172 Y3.298 E7.76271
G1 X-46.768 Y-3.298 E8.26142
G1 X-47.671 Y-3.298 E8.30970
G1 X-41.075 Y3.298 E8.80842
G1 X-41.978 Y3.298 E8.85670
G1 X-48.575 Y-3.298 E9.35541
G1 X-49.478 Y-3.298 E9.40370
G1 X-42.881 Y3.298 E9.90241
G1 X-43.784 Y3.298 E9.95070
G1 X-50.377 Y-3.294 E10.44912
G1 X-50.413 Y-2.427 E10.49551
G1 X-44.688 Y3.298 E10.92839
G1 X-45.591 Y3.298 E10.97668
G1 X-50.413 Y-1.524 E11.34128
G1 X-50.413 Y-0.621 E11.38956
G1 X-46.494 Y3.298 E11.68587
G1 X-47.397 Y3.298 E11.73416
G1 X-50.413 Y0.282 E11.96219
G1 X-50.413 Y1.185 E12.01047
G1 X-48.300 Y3.298 E12.17022
G1 X-49.204 Y3.298 E12.21850
G1 X-50.413 Y2.088 E12.30996
G1 X-50.413 Y2.992 E12.35825
G1 X-50.107 Y3.298 E12.38142
G1 Z1.350 F1800.000
G1 X-32.887 Y3.679 F1800.000
G1 X-50.245 Y3.679 E13.30938 F600.000
G1 X-50.245 Y-3.679 E13.70273
G1 X-32.887 Y-3.679 E14.63069
G1 X-32.887 Y3.619 E15.02084
G1 X-32.258 Y4.307 F1800.000
G1 X-50.873 Y4.307 E16.01597 F600.000
G1 X-50.873 Y-4.307 E16.47651
G1 X-32.258 Y-4.307 E17.47164
G1 X-32.258 Y4.247 E17.92897
G1 X-31.766 Y4.800 F1800.000
G1 X-51.366 Y4.800 E18.52445 F300.000
G1 X-51.366 Y-4.800 E18.81611
G1 X-31.766 Y-4.800 E19.41160
G1 X-31.766 Y4.740 E19.70144
G1 X-32.112 Y4.600 F1800.000
G1 E17.70144 F2400.00000
G92 E0
G1 X-33.574 Y3.298 F1800.000
G1 E2.00000 F2400.00000
G1 X-33.267 Y2.992 E2.02318 F900.000
G1 X-33.267 Y2.088 E2.07146
G1 X-34.477 Y3.298 E2.16292
G1 X-35.380 Y3.298 E2.21121
G1 X-33.267 Y1.185 E2.37096
G1 X-33.267 Y0.282 E2.41924
G1 X-36.284 Y3.298 E2.64727
G1 X-37.187 Y3.298 E2.69556
G1 X-33.267 Y-0.621 E2.99187
G1 X-33.267 Y-1.524 E3.04016
G1 X-38.090 Y3.298 E3.40476
G1 X-38.993 Y3.298 E3.45304
G1 X-33.267 Y-2.427 E3.88592
G1 X-33.304 Y-3.294 E3.93231
G1 X-39.896 Y3.298 E4.43074
G1 X-40.800 Y3.298 E4.47902
G1 X-34.203 Y-3.298 E4.97774
G1 X-35.106 Y-3.298 E5.02602
G1 X-41.703 Y3.298 E5.52474
G1 X-42.606 Y3.298 E5.57302
G1 X-36.009 Y-3.298 E6.07173
G1 X-36.913 Y-3.298 E6.12002
G1 X-43.509 Y3.298 E6.61873
G1 X-44.412 Y3.298 E6.66701
G1 X-37.816 Y-3.298 E7.16573
G1 X-38.719 Y-3.298 E7.21401
G1 X-45.315 Y3.298 E7.71273
G1 X-46.219 Y3.298 E7.76101
G1 X-39.622 Y-3.298 E8.25972
G1 X-40.525 Y-3.298 E8.30801
G1 X-47.122 Y3.298 E8.80672
G1 X-48.025 Y3.298 E8.85500
G1 X-41.429 Y-3.298 E9.35372
G1 X-42.332 Y-3.298 E9.40200
G1 X-48.928 Y3.298 E9.90072
G1 X-49.828 Y3.294 E9.94880
G1 X-43.235 Y-3.298 E10.44723
G1 X-44.138 Y-3.298 E10.49551
G1 X-49.864 Y2.427 E10.92839
G1 X-49.864 Y1.524 E10.97668
G1 X-45.041 Y-3.298 E11.34128
G1 X-45.945 Y-3.298 E11.38956
G1 X-49.864 Y0.621 E11.68587
G1 X-49.864 Y-0.282 E11.73416
G1 X-46.848 Y-3.298 E11.96219
G1 X-47.751 Y-3.298 E12.01047
G1 X-49.864 Y-1.185 E12.17022
G1 X-49.864 Y-2.088 E12.21850
G1 X-48.654 Y-3.298 E12.30996
G1 X-49.557 Y-3.298 E12.35825
G1 X-49.864 Y-2.992 E12.38142
G1 Z1.550 F1800.000
G1 X-32.337 Y3.679 F1800.000
G1 X-49.695 Y3.679 E13.30938 F600.000
G1 X-49.695 Y-3.679 E13.70273
G1 X-32.337 Y-3.679 E14.63069
G1 X-32.337 Y3.619 E15.02083
G1 X-31.709 Y4.307 F1800.000
G1 X-50.323 Y4.307 E16.01597 F600.000
G1 X-50.323 Y-4.307 E16.47650
G1 X-31.709 Y-4.307 E17.47164
G1 X-31.709 Y4.247 E17.92897
G1 X-31.216 Y4.800 F1800.000
G1 X-50.816 Y4.800 E18.52445 F300.000
G1 X-50.816 Y-4.800 E18.81611
G1 X-31.216 Y-4.800 E19.41160
G1 X-31.216 Y4.740 E19.70144
G1 X-31.563 Y4.600 F1800.000
G1 E17.70144 F2400.00000
G92 E0
G1 X-32.718 Y-2.992 F1800.000
G1 E2.00000 F2400.00000
G1 X-33.025 Y-3.298 E2.02318 F900.000
G1 X-33.928 Y-3.298 E2.07146
G1 X-32.718 Y-2.088 E2.16292
G1 X-32.718 Y-1.185 E2.21121
G1 X-34.831 Y-3.298 E2.37096
G1 X-35.734 Y-3.298 E2.41924
G1 X-32.718 Y-0.282 E2.64727
G1 X-32.718 Y0.621 E2.69556
G1 X-36.637 Y-3.298 E2.99187
G1 X-37.540 Y-3.298 E3.04016
G1 X-32.718 Y1.524 E3.40476
G1 X-32.718 Y2.427 E3.45304
G1 X-38.444 Y-3.298 E3.88592
G1 X-39.347 Y-3.298 E3.93421
G1 X-32.754 Y3.294 E4.43264
G1 X-33.654 Y3.298 E4.48072
G1 X-40.250 Y-3.298 E4.97943
G1 X-41.153 Y-3.298 E5.02772
G1 X-34.557 Y3.298 E5.52643
G1 X-35.460 Y3.298 E5.57472
G1 X-42.056 Y-3.298 E6.07343
G1 X-42.960 Y-3.298 E6.12171
G1 X-36.363 Y3.298 E6.62043
G1 X-37.266 Y3.298 E6.66871
G1 X-43.863 Y-3.298 E7.16742
G1 X-44.766 Y-3.298 E7.21571
G1 X-38.170 Y3.298 E7.71442
G1 X-39.073 Y3.298 E7.76271
G1 X-45.669 Y-3.298 E8.26142
G1 X-46.572 Y-3.298 E8.30970
G1 X-39.976 Y3.298 E8.80842
G1 X-40.879 Y3.298 E8.85670
G1 X-47.476 Y-3.298 E9.35541
G1 X-48.379 Y-3.298 E9.40370
G1 X-41.782 Y3.298 E9.90241
G1 X-42.685 Y3.298 E9.95070
G1 X-49.278 Y-3.294 E10.44912
G1 X-49.314 Y-2.427 E10.49551
G1 X-43.589 Y3.298 E10.92840
G1 X-44.492 Y3.298 E10.97668
G1 X-49.314 Y-1.524 E11.34128
G1 X-49.314 Y-0.621 E11.38956
G1 X-45.395 Y3.298 E11.68588
G1 X-46.298 Y3.298 E11.73416
G1 X-49.314 Y0.282 E11.96219
G1 X-49.314 Y1.185 E12.01047
G1 X-47.201 Y3.298 E12.17022
G1 X-48.105 Y3.298 E12.21850
G1 X-49.314 Y2.088 E12.30996
G1 X-49.314 Y2.992 E12.35825
G1 X-49.008 Y3.298 E12.38142
G1 Z1.750 F1800.000
G1 X-31.788 Y3.679 F1800.000
G1 X-49.146 Y3.679 E13.30938 F600.000
G1 X-49.146 Y-3.679 E13.70273
G1 X-31.788 Y-3.679 E14.63069
G1 X-31.788 Y3.619 E15.02084
G1 X-31.159 Y4.307 F1800.000
G1 X-49.774 Y4.307 E16.01597 F600.000
G1 X-49.774 Y-4.307 E16.47651
G1 X-31.159 Y-4.307 E17.47164
G1 X-31.159 Y4.247 E17.92897
G1 X-30.667 Y4.800 F1800.000
G1 X-50.267 Y4.800 E18.52445 F300.000
G1 X-50.267 Y-4.800 E18.81612
G1 X-30.667 Y-4.800 E19.41160
G1 X-30.667 Y4.740 E19.70144
G1 X-31.013 Y4.600 F1800.000
G1 E17.70144 F2400.00000
G92 E0
G1 X-32.475 Y3.298 F1800.000
G1 E2.00000 F2400.00000
G1 X-32.168 Y2.992 E2.02318 F900.000
G1 X-32.168 Y2.088 E2.07146
G1 X-33.378 Y3.298 E2.16292
G1 X-34.281 Y3.298 E2.21121
G1 X-32.168 Y1.185 E2.37096
G1 X-32.168 Y0.282 E2.41924
G1 X-35.185 Y3.298 E2.64727
G1 X-36.088 Y3.298 E2.69556
G1 X-32.168 Y-0.621 E2.99187
G1 X-32.168 Y-1.524 E3.04016
G1 X-36.991 Y3.298 E3.40476
G1 X-37.894 Y3.298 E3.45304
G1 X-32.168 Y-2.427 E3.88592
G1 X-32.205 Y-3.294 E3.93231
