; generated by Slic3r 1.2.9 on 2016-06-30 at 15:38:23

; external perimeters extrusion width = 0.40mm
; perimeters extrusion width = 0.67mm
; infill extrusion width = 0.67mm
; solid infill extrusion width = 0.67mm
; top infill extrusion width = 0.67mm

M104 S210 ; set temperature

M109 S210 ; wait for temperature to be reached
G21 ; set units to millimeters
G90 ; use absolute coordinates
M82 ; use absolute distances for extrusion
G92 E0
M106 S255
G1 Z0.350 F1800.000
G1 E-2.00000 F2400.00000
G92 E0
G1 X-19.975 Y0.000 F1800.000
G1 E2.00000 F2400.00000
G1 X-19.975 Y0.025 E2.00234 F600.000
G1 X-20.025 Y0.025 E2.00701 F600.000
G1 X-20.025 Y-0.025 E2.01168
G1 X-20.010 Y-0.025 E2.01311
G1 X-19.350 Y0.650 F1800.000
G1 X-20.650 Y0.650 E2.13407 F600.000
G1 X-20.650 Y-0.650 E2.25502
G1 X-19.350 Y-0.650 E2.37598
G1 X-19.350 Y0.590 E2.49136
G1 X-19.696 Y0.450 F1800.000
G1 Z0.550 F1800.000
G1 X-19.693 Y0.307 F1800.000
G1 X-20.307 Y0.307 E2.52421 F600.000
G1 X-20.307 Y-0.307 E2.55707
G1 X-19.693 Y-0.307 E2.58993
G1 X-19.693 Y0.247 E2.61957
G1 X-19.200 Y0.800 F1800.000
G1 X-20.800 Y0.800 E2.66819 F600.000
G1 X-20.800 Y-0.800 E2.71680
G1 X-19.200 Y-0.800 E2.76541
G1 X-19.200 Y0.740 E2.81219
G1 X-19.546 Y0.600 F1800.000
G1 Z0.750 F1800.000
G1 X-19.693 Y0.307 F1800.000
G1 X-20.307 Y0.307 E2.84505 F600.000
G1 X-20.307 Y-0.307 E2.87791
G1 X-19.693 Y-0.307 E2.91076
G1 X-19.693 Y0.247 E2.94041
G1 X-19.200 Y0.800 F1800.000
G1 X-20.800 Y0.800 E2.98902 F600.000
G1 X-20.800 Y-0.800 E3.03763
G1 X-19.200 Y-0.800 E3.08625
G1 X-19.200 Y0.740 E3.13303
G1 X-19.546 Y0.600 F1800.000
G1 Z0.950 F1800.000
G1 X-19.693 Y0.307 F1800.000
G1 X-20.307 Y0.307 E3.16589 F600.000
G1 X-20.307 Y-0.307 E3.19875
G1 X-19.693 Y-0.307 E3.23160
G1 X-19.693 Y0.247 E3.26125
G1 X-19.200 Y0.800 F1800.000
G1 X-20.800 Y0.800 E3.30986 F600.000
G1 X-20.800 Y-0.800 E3.35847
G1 X-19.200 Y-0.800 E3.40708
G1 X-19.200 Y0.740 E3.45387
G1 X-19.546 Y0.600 F1800.000
G1 Z1.150 F1800.000
G1 X-19.693 Y0.307 F1800.000
G1 X-20.307 Y0.307 E3.48673 F600.000
G1 X-20.307 Y-0.307 E3.51959
G1 X-19.693 Y-0.307 E3.55244
G1 X-19.693 Y0.247 E3.58209
G1 X-19.200 Y0.800 F1800.000
G1 X-20.800 Y0.800 E3.63070 F600.000
G1 X-20.800 Y-0.800 E3.67931
G1 X-19.200 Y-0.800 E3.72792
G1 X-19.200 Y0.740 E3.77471
G1 X-19.546 Y0.600 F1800.000
G1 Z1.350 F1800.000
G1 X-19.693 Y0.307 F1800.000
G1 X-20.307 Y0.307 E3.80757 F600.000
G1 X-20.307 Y-0.307 E3.84042
G1 X-19.693 Y-0.307 E3.87328
G1 X-19.693 Y0.247 E3.90293
G1 X-19.200 Y0.800 F1800.000
G1 X-20.800 Y0.800 E3.95154 F600.000
G1 X-20.800 Y-0.800 E4.00015
G1 X-19.200 Y-0.800 E4.04876
G1 X-19.200 Y0.740 E4.09555
G1 X-19.546 Y0.600 F1800.000
G1 Z1.550 F1800.000
G1 X-19.693 Y0.307 F1800.000
G1 X-20.307 Y0.307 E4.12841 F600.000
G1 X-20.307 Y-0.307 E4.16126
G1 X-19.693 Y-0.307 E4.19412
G1 X-19.693 Y0.247 E4.22377
G1 X-19.200 Y0.800 F1800.000
G1 X-20.800 Y0.800 E4.27238 F600.000
G1 X-20.800 Y-0.800 E4.32099
G1 X-19.200 Y-0.800 E4.36960
G1 X-19.200 Y0.740 E4.41639
G1 X-19.546 Y0.600 F1800.000
G1 Z1.750 F1800.000
G1 X-19.693 Y0.307 F1800.000
G1 X-20.307 Y0.307 E4.44925 F600.000
G1 X-20.307 Y-0.307 E4.48210
G1 X-19.693 Y-0.307 E4.51496
G1 X-19.693 Y0.247 E4.54461
G1 X-19.200 Y0.800 F1800.000
G1 X-20.800 Y0.800 E4.59322 F600.000
G1 X-20.800 Y-0.800 E4.64183
G1 X-19.200 Y-0.800 E4.69044
G1 X-19.200 Y0.740 E4.73723
G1 X-19.546 Y0.600 F1800.000
G1 Z1.950 F1800.000
G1 X-19.693 Y0.307 F1800.000
G1 X-20.307 Y0.307 E4.77008 F600.000
G1 X-20.307 Y-0.307 E4.80294
G1 X-19.693 Y-0.307 E4.83580
G1 X-19.693 Y0.247 E4.86545
G1 X-19.200 Y0.800 F1800.000
G1 X-20.800 Y0.800 E4.91406 F600.000
G1 X-20.800 Y-0.800 E4.96267
G1 X-19.200 Y-0.800 E5.01128
G1 X-19.200 Y0.740 E5.05807
G1 X-19.546 Y0.600 F1800.000
G1 E3.05807 F2400.00000
G92 E0
M107
; Maybe cool the bed?
M140 S0
; Maybe move to some safe location?
G1 F1200  Z30.25
;Keep fan on
M106
; filament used = 3.1mm (0.0cm3)

; avoid_crossing_perimeters = 0
; bed_shape = -50x-50,50x-50,50x50,-50x50
; bed_temperature = 0
; before_layer_gcode = 
; bridge_acceleration = 0
; bridge_fan_speed = 100
; brim_width = 0
; complete_objects = 0
; cooling = 1
; default_acceleration = 0
; disable_fan_first_layers = 0
; duplicate_distance = 6
; end_gcode = ; Maybe cool the bed?\nM140 S0\n; Maybe move to some safe location?\nG1 F1200  Z30.25\n;Keep fan on\nM106
; extruder_clearance_height = 20
; extruder_clearance_radius = 20
; extruder_offset = 0x0
; extrusion_axis = E
; extrusion_multiplier = 1
; fan_always_on = 1
; fan_below_layer_time = 60
; filament_colour = #FF0000
; filament_diameter = 1.73
; first_layer_acceleration = 0
; first_layer_bed_temperature = 0
; first_layer_extrusion_width = 200%
; first_layer_speed = 15
; first_layer_temperature = 210
; gcode_arcs = 0
; gcode_comments = 0
; gcode_flavor = reprap
; infill_acceleration = 0
; infill_first = 0
; layer_gcode = 
; max_fan_speed = 100
; max_print_speed = 50
; max_volumetric_speed = 0
; min_fan_speed = 35
; min_print_speed = 10
; min_skirt_length = 0
; notes = 
; nozzle_diameter = 0.4
; only_retract_when_crossing_perimeters = 1
; ooze_prevention = 0
; output_filename_format = [input_filename_base].gcode
; perimeter_acceleration = 0
; post_process = 
; pressure_advance = 0
; resolution = 0
; retract_before_travel = 2
; retract_layer_change = 0
; retract_length = 2
; retract_length_toolchange = 10
; retract_lift = 0
; retract_restart_extra = 0
; retract_restart_extra_toolchange = 0
; retract_speed = 40
; skirt_distance = 20
; skirt_height = 1
; skirts = 0
; slowdown_below_layer_time = 5
; spiral_vase = 0
; standby_temperature_delta = -5
; start_gcode = 
; temperature = 210
; threads = 2
; toolchange_gcode = 
; travel_speed = 30
; use_firmware_retraction = 0
; use_relative_e_distances = 0
; use_volumetric_e = 0
; vibration_limit = 0
; wipe = 0
; z_offset = 0
; dont_support_bridges = 1
; extrusion_width = 0
; first_layer_height = 0.35
; infill_only_where_needed = 0
; interface_shells = 0
; layer_height = 0.2
; raft_layers = 0
; seam_position = aligned
; support_material = 0
; support_material_angle = 0
; support_material_contact_distance = 0.2
; support_material_enforce_layers = 0
; support_material_extruder = 1
; support_material_extrusion_width = 0
; support_material_interface_extruder = 1
; support_material_interface_layers = 3
; support_material_interface_spacing = 0
; support_material_interface_speed = 100%
; support_material_pattern = pillars
; support_material_spacing = 2.5
; support_material_speed = 20
; support_material_threshold = 0
; xy_size_compensation = 0
; bottom_solid_layers = 3
; bridge_flow_ratio = 1
; bridge_speed = 20
; external_fill_pattern = rectilinear
; external_perimeter_extrusion_width = 0
; external_perimeter_speed = 50%
; external_perimeters_first = 0
; extra_perimeters = 0
; fill_angle = 45
; fill_density = 100%
; fill_pattern = rectilinear
; gap_fill_speed = 10
; infill_every_layers = 1
; infill_extruder = 1
; infill_extrusion_width = 0
; infill_overlap = 15%
; infill_speed = 15
; overhangs = 0
; perimeter_extruder = 1
; perimeter_extrusion_width = 0
; perimeter_speed = 10
; perimeters = 3
; small_perimeter_speed = 10
; solid_infill_below_area = 70
; solid_infill_every_layers = 0
; solid_infill_extruder = 1
; solid_infill_extrusion_width = 0
; solid_infill_speed = 15
; thin_walls = 0
; top_infill_extrusion_width = 0
; top_solid_infill_speed = 10
; top_solid_layers = 3
